Costumes/pencil-b.svg

<?xml version="1.0" encoding="UTF-8" standalone="no"?>
<svg
   version="1.1"
   width="112.81999"
   height="131.68686"
   id="svg12"
   sodipodi:docname="pencil-b.svg"
   xmlns:inkscape="http://www.inkscape.org/namespaces/inkscape"
   xmlns:sodipodi="http://sodipodi.sourceforge.net/DTD/sodipodi-0.dtd"
   xmlns="http://www.w3.org/2000/svg"
   xmlns:svg="http://www.w3.org/2000/svg">
  <defs
     id="defs16" />
  <sodipodi:namedview
     id="namedview14"
     pagecolor="#ffffff"
     bordercolor="#000000"
     borderopacity="0.25"
     inkscape:showpageshadow="2"
     inkscape:pageopacity="0.0"
     inkscape:pagecheckerboard="0"
     inkscape:deskcolor="#d1d1d1" />
  <!-- Exported by Scratch - http://scratch.mit.edu/ -->
  <g
     id="ID0.2814494022168219"
     transform="translate(-0.40830649,-1.6522497)">
    <path
       id="ID0.37414224771782756"
       fill="#ff9400"
       stroke="none"
       stroke-linecap="round"
       d="m 281.55,103.9 c 0.641,-0.743 1.373,-1.356 2.25,-1.45 1.911,-0.169 3.954,-0.082 5.7,0.7 2.468,1.106 4.762,2.8 6.55,4.8 1.256,1.387 1.887,3.291 2.3,5.05 0.154,0.657 0.151,0.943 -0.55,1.95 -2.802,4.027 -5.438,8.291 -8.9,11.8 -1.074,1.045 -2.964,2.148 -4.3,1.45 -4.845,-2.53 -9.627,-5.92 -12.7,-10.4 -0.97,-1.414 1.529,-3.087 2.5,-4.5 2.218,-3.226 4.573,-6.427 7.15,-9.4 z"
       transform="rotate(4.3859877,1507.7398,-2354.5599)" />
    <path
       id="ID0.9411248937249184"
       fill="#ffff00"
       stroke="none"
       stroke-linecap="round"
       d="m 268.25,121.5 c 1.368,-1.661 1.529,-2.207 2.6,-2.05 3.213,0.588 6.39,2.043 8.9,4.05 2.201,1.759 3.344,4.57 4.75,7 0.409,0.699 1.666,0.305 0.5,2 -4.354,7.075 -9.706,13.513 -14.5,20.25 -16.056,22.566 -31.739,45.421 -48,67.75 -4.085,5.641 -1.664,1.926 -2.75,2 -2.76,0.187 -5.658,-0.133 -8.25,-1.25 -2.064,-0.693 -3.643,-2.502 -5.25,-4 -1.033,-0.968 -2.496,-2.156 -2.65,-3.65 -0.166,-1.619 -1.99,0.925 1.9,-4.75 15.311,-22.439 31.09,-44.681 47,-66.85 5.019,-6.994 10.278,-13.855 15.75,-20.5 z"
       transform="rotate(4.3859877,1507.7398,-2354.5599)" />
    <path
       id="path4"
       fill="#f6e575"
       stroke="none"
       stroke-linecap="round"
       d="m 268.6,123.5 c 10.68,-15.575 21.314,-31.346 32.15,-47 2.674,-3.764 1.844,-4.407 4,-4.95 1.693,-0.435 3.214,1.46 4.45,2.9 2.323,2.716 4.123,5.802 5.45,9.25 0.471,1.263 1.981,-1.676 -1.4,3.8 -14.135,21.671 -28.434,43.269 -42.85,64.75 -15.506,23.104 -30.991,46.366 -47.2,68.95 -4.161,5.632 -2.587,1.726 -4.1,1.95 -2.749,0.315 -5.911,1.091 -8.65,0.2 -2.787,-0.91 -6.033,-2.404 -7.2,-5.1 -0.59,-1.931 -0.528,0.205 3.25,-5.3 15.111,-22.022 30.512,-43.907 45.75,-65.85 5.442,-7.844 10.944,-15.717 16.35,-23.6 z"
       transform="matrix(0.66320634,0.06583908,-0.06583908,0.66320634,-104.25,-45.95)" />
    <path
       id="ID0.7238114709034562"
       fill="#c0c8c9"
       stroke="none"
       stroke-linecap="round"
       d="m 276.15,110.4 c 0.578,-0.726 0.584,-0.704 1.2,-0.6 2.32,0.557 4.678,1.23 6.8,2.4 2.293,1.265 4.318,3.047 6.15,4.9 1.198,1.21 2.057,2.709 2.85,4.2 0.198,0.373 0.485,0.203 -0.05,0.95 -2.163,3.096 -4.513,6.063 -6.9,8.95 -0.595,0.721 -0.573,0.558 -0.8,0.35 -0.904,-0.828 -1.202,-2.235 -2.1,-3.1 -2.227,-2.147 -4.568,-4.351 -7.25,-6 -1.606,-0.945 -3.604,-1.094 -5.4,-1.65 -0.513,-0.159 -1.268,-0.118 -1.6,-0.55 -0.168,-0.242 0.056,-0.05 0.6,-0.8 2.176,-2.999 4.19,-6.146 6.5,-9.05 z"
       transform="rotate(4.3859877,1507.7398,-2354.5599)" />
    <path
       id="ID0.2137216660194099"
       fill="none"
       stroke="#acb3b4"
       stroke-width="2"
       stroke-linecap="round"
       d="m 288.75,127 c -3.634,-6.122 -4.207,-6.36 -7.25,-8.5 -2.498,-1.757 -8.75,-2.75 -8.75,-2.75"
       transform="rotate(4.3859877,1507.7398,-2354.5599)" />
    <path
       id="ID0.6194283408112824"
       fill="#ffffcc"
       stroke="none"
       stroke-linecap="round"
       d="m 206,214.85 c 0.897,0.482 2.199,-1.279 3,-0.6 1.312,1.119 0.237,4.109 1.7,4.9 1.344,0.722 3.129,-2.047 4.4,-1.3 1.28,0.757 0.086,3.338 1.25,4.3 1.097,0.908 3.23,-0.162 4.25,0.5 0.497,0.321 0.701,0.384 -1.1,1.7 -7.206,5.263 -14.322,10.755 -22,15.3 -1.92,1.136 -1.854,0.306 -1.5,-1.65 1.415,-7.825 3.824,-15.336 6,-22.85 0.543,-1.965 0.763,-2.444 1.5,-3.3 0.264,-0.301 0.97,-0.384 1.2,-0.1 0.702,0.872 0.348,2.587 1.3,3.1 z"
       transform="rotate(4.3859877,1507.7398,-2354.5599)" />
    <path
       id="ID0.2165633891709149"
       fill="#464646"
       stroke="none"
       stroke-linecap="round"
       d="m 195.15,240.8 c 0.305,-1.664 0.761,-3.29 1.2,-4.9 0.129,-0.418 0.119,-0.479 0.3,-0.45 0.706,0.121 1.409,0.376 2,0.8 0.613,0.451 1.143,1.088 1.45,1.75 0.089,0.192 -0.096,0.209 -0.45,0.45 -1.41,0.965 -2.797,2.016 -4.3,2.8 -0.376,0.196 -0.277,-0.031 -0.2,-0.45 z"
       transform="rotate(4.3859877,1507.7398,-2354.5599)" />
    <path
       id="ID0.3924881429411471"
       fill="none"
       stroke="#edd571"
       stroke-width="2"
       stroke-linecap="round"
       d="M 273.25,131.05 218,207.8"
       transform="rotate(4.3859877,1507.7398,-2354.5599)" />
  </g>
</svg>

<svg version="1.1" width="115" height="135" xmlns="http://www.w3.org/2000/svg" xmlns:xlink="http://www.w3.org/1999/xlink">
  <!-- Exported by Scratch - http://scratch.mit.edu/ -->
  <g id="ID0.2814494022168219" transform="matrix(1, 0, 0, 1, 0.5, 0)">
    <path id="ID0.37414224771782756" fill="#FF9400" stroke="none" stroke-linecap="round" d="M 281.550 103.900 C 282.191 103.157 282.923 102.544 283.800 102.450 C 285.711 102.281 287.754 102.368 289.500 103.150 C 291.968 104.256 294.262 105.950 296.050 107.950 C 297.306 109.337 297.937 111.241 298.350 113 C 298.504 113.657 298.501 113.943 297.800 114.950 C 294.998 118.977 292.362 123.241 288.900 126.750 C 287.826 127.795 285.936 128.898 284.600 128.200 C 279.755 125.670 274.973 122.280 271.900 117.800 C 270.930 116.386 273.429 114.713 274.400 113.300 C 276.618 110.074 278.973 106.873 281.550 103.900 Z " transform="matrix(0.9970715045928955, 0.07647518813610077, -0.07647518813610077, 0.9970715045928955, -175.65, -122.2)"/>
    <path id="ID0.9411248937249184" fill="#FFFF00" stroke="none" stroke-linecap="round" d="M 268.250 121.500 C 269.618 119.839 269.779 119.293 270.850 119.450 C 274.063 120.038 277.240 121.493 279.750 123.500 C 281.951 125.259 283.094 128.070 284.500 130.500 C 284.909 131.199 286.166 130.805 285 132.500 C 280.646 139.575 275.294 146.013 270.500 152.750 C 254.444 175.316 238.761 198.171 222.500 220.500 C 218.415 226.141 220.836 222.426 219.750 222.500 C 216.990 222.687 214.092 222.367 211.500 221.250 C 209.436 220.557 207.857 218.748 206.250 217.250 C 205.217 216.282 203.754 215.094 203.600 213.600 C 203.434 211.981 201.610 214.525 205.500 208.850 C 220.811 186.411 236.590 164.169 252.500 142 C 257.519 135.006 262.778 128.145 268.250 121.500 Z " transform="matrix(0.9970715045928955, 0.07647518813610077, -0.07647518813610077, 0.9970715045928955, -175.65, -122.2)"/>
    <path id="ID0.9411248937249184" fill="#F6E575" stroke="none" stroke-linecap="round" d="M 268.600 123.500 C 279.280 107.925 289.914 92.154 300.750 76.500 C 303.424 72.736 302.594 72.093 304.750 71.550 C 306.443 71.115 307.964 73.010 309.200 74.450 C 311.523 77.166 313.323 80.252 314.650 83.700 C 315.121 84.963 316.631 82.024 313.250 87.500 C 299.115 109.171 284.816 130.769 270.400 152.250 C 254.894 175.354 239.409 198.616 223.200 221.200 C 219.039 226.832 220.613 222.926 219.100 223.150 C 216.351 223.465 213.189 224.241 210.450 223.350 C 207.663 222.440 204.417 220.946 203.250 218.250 C 202.660 216.319 202.722 218.455 206.500 212.950 C 221.611 190.928 237.012 169.043 252.250 147.100 C 257.692 139.256 263.194 131.383 268.600 123.500 Z " transform="matrix(0.6632063388824463, 0.06583908200263977, -0.06583908200263977, 0.6632063388824463, -104.25, -45.95)"/>
    <path id="ID0.7238114709034562" fill="#C0C8C9" stroke="none" stroke-linecap="round" d="M 276.150 110.400 C 276.728 109.674 276.734 109.696 277.350 109.800 C 279.670 110.357 282.028 111.030 284.150 112.200 C 286.443 113.465 288.468 115.247 290.300 117.100 C 291.498 118.310 292.357 119.809 293.150 121.300 C 293.348 121.673 293.635 121.503 293.100 122.250 C 290.937 125.346 288.587 128.313 286.200 131.200 C 285.605 131.921 285.627 131.758 285.400 131.550 C 284.496 130.722 284.198 129.315 283.300 128.450 C 281.073 126.303 278.732 124.099 276.050 122.450 C 274.444 121.505 272.446 121.356 270.650 120.800 C 270.137 120.641 269.382 120.682 269.050 120.250 C 268.882 120.008 269.106 120.200 269.650 119.450 C 271.826 116.451 273.840 113.304 276.150 110.400 Z " transform="matrix(0.9970715045928955, 0.07647518813610077, -0.07647518813610077, 0.9970715045928955, -175.65, -122.2)"/>
    <path id="ID0.2137216660194099" fill="none" stroke="#ACB3B4" stroke-width="2" stroke-linecap="round" d="M 288.750 127 C 285.116 120.878 284.543 120.640 281.500 118.500 C 279.002 116.743 272.750 115.750 272.750 115.750 " transform="matrix(0.9970715045928955, 0.07647518813610077, -0.07647518813610077, 0.9970715045928955, -175.65, -122.2)"/>
    <path id="ID0.6194283408112824" fill="#FFFFCC" stroke="none" stroke-linecap="round" d="M 206 214.850 C 206.897 215.332 208.199 213.571 209 214.250 C 210.312 215.369 209.237 218.359 210.700 219.150 C 212.044 219.872 213.829 217.103 215.100 217.850 C 216.380 218.607 215.186 221.188 216.350 222.150 C 217.447 223.058 219.580 221.988 220.600 222.650 C 221.097 222.971 221.301 223.034 219.500 224.350 C 212.294 229.613 205.178 235.105 197.500 239.650 C 195.580 240.786 195.646 239.956 196 238 C 197.415 230.175 199.824 222.664 202 215.150 C 202.543 213.185 202.763 212.706 203.500 211.850 C 203.764 211.549 204.470 211.466 204.700 211.750 C 205.402 212.622 205.048 214.337 206 214.850 Z " transform="matrix(0.9970715045928955, 0.07647518813610077, -0.07647518813610077, 0.9970715045928955, -175.65, -122.2)"/>
    <path id="ID0.2165633891709149" fill="#464646" stroke="none" stroke-linecap="round" d="M 195.150 240.800 C 195.455 239.136 195.911 237.510 196.350 235.900 C 196.479 235.482 196.469 235.421 196.650 235.450 C 197.356 235.571 198.059 235.826 198.650 236.250 C 199.263 236.701 199.793 237.338 200.100 238 C 200.189 238.192 200.004 238.209 199.650 238.450 C 198.240 239.415 196.853 240.466 195.350 241.250 C 194.974 241.446 195.073 241.219 195.150 240.800 Z " transform="matrix(0.9970715045928955, 0.07647518813610077, -0.07647518813610077, 0.9970715045928955, -175.65, -122.2)"/>
    <path id="ID0.3924881429411471" fill="none" stroke="#EDD571" stroke-width="2" stroke-linecap="round" d="M 273.250 131.050 L 218 207.800 " transform="matrix(0.9970715045928955, 0.07647518813610077, -0.07647518813610077, 0.9970715045928955, -175.65, -122.2)"/>
  </g>
</svg>
